X:1
T:D Major Abraham Maxim, 1802
T:Isaac Watts, 1719, revised (Hymn 92, Book 2)        86. 86. (C. M.)
T:Augusta Transcribed from The Village Harmony, 1803.
%%score [ 1 2 3 ]
L:1/8
Q:1/4=150
M:4/4
K:D
V:1 treble nm="Tr." snm="Tr."
V:2 treble-8 nm="T." snm="T."
V:3 bass nm="B." snm="B."
V:1
"^2. Thy  pow'r  the whole creation rules,    And  on  the  star  –  ry        skies              Sits  smiling  at      the   weak   de–signs  Thine envious""^1. Shout   to the Lord, and let  our  joys     Through  all  the  na – tions  run;               Ye western skies,  re – sound the noise  Beyond the" F8 | %1
 D2 E2 F2 G2 | A4 E4 | F8 | F4 E2 D2 | D4 C4 | D8 | z4 F4 | A2 c2 d4 | (c2 e2) f2 e2 | f8 | %11
 d4 F2 B2 | %12
"^1. ri         –        sing    sun.                       Thee,   mighty  God,  our  souls admire, Thee  our  glad  voices    sing,      And    join  with  the  ce –""^2. foes _______    de   –  vise.                       Thy  scorn derides  their  fee–ble rage,  And  with  an   awful    frown     Flings vast con–fu–sion" (A3 B A2) G2 | %13
 F8 |: z4 F4 | A2 F2 d2 A2 | B2 F2 G2 F2 | E2 D2 G2 E2 | F6 c2 | d2 c2 d2 d2 | %20
"^1. – les  – tial   choir   To  praise  th'e – ter –nal      King,    To praise th'e–ter–nal King.""^2.   on     their  plots,  And shakes their Ba –bel  down,  And shakes their Babel down." c>B A^G A2 A2 | %21
 F2 G>A B2 d2 |{d} c6 A2 | d2 f2 A2 G2 | F8 :| %25
V:2
"^3. Their  secret  fires in  ca – verns lay,      And we the  sac  –  ri      –     fice;               But  gloomy  caverns  strove  in  vain    To 'scape all –""^4.  In        vain  the  busy  sons  of   hell       Still  new re–bel –  lions         try,          Their souls shall pine with envious rage,   And  vex   a –" A8 | %1
 F2 E2 D2 E2 | F4 G4 | A8 | A4 G2 F2 | F4 (3(E2 F2 G2) | F8 | z4 A4 | d2 e2 f4 | e4 d2 c2 | d8 | %11
 F4 A2 G2 | %12
"^3. – sear   –   ching     eyes.                       Their  dark  designs  were  all  reveal'd, Their treasons all  be–tray'd:        Praise  to  the  God  that""^4. – way _____   and      die.                         Al  –  migh–ty  grace  defends our  land  From their malicious pow'r;       Then    let   us   with  u –" (F3 G F2) E2 | %13
 D8 |: z4 D4 | F2 D2 A2 F2 | G2 A2 B2 d2 | c2 A2 B2 c2 | d6 e2 | f2 e2 f2 f2 | %20
"^3. broke  the  snare  Their  curs–ed  hands  had   laid,  Their curs–ed hands had laid.""^4. – ni –  ted  songs   Al – migh – ty   grace    a  – dore,     Al  – migh–ty grace a –dore." e>d cB c2 c2 | %21
 d2 B2 g2 f2 |{f} e6 c2 | A2 d2 F2 E2 | D8 :| %25
V:3
 D,8 | D,2 A,,2 A,2 G,2 | F,4 E,4 | D,8 | D,4 G,2 B,2 | A,4 A,,4 | D,8 | z4 D,4 | D,2 A,2 D4 | %9
 A,4 D,2 A,,2 | D,8 | D,4 D,2 G,,2 | A,,6 A,,2 | D,8 |: z4 D,4 | D,2 D,2 D,2 D,2 | %16
 G,2 F,2 E,2 D,2 | A,2 F,2 G,2 A,2 | D,6 A,2 | D2 A,2 D2 D2 | A,2 A,2 A,,2 A,,2 | %21
 D,2 E,F, G,2 ^G,2 | A,6 A,2 | D,2 D,2 A,2 A,,2 | D,8 :| %25

